X: 20683
T: WOODMAN SPARE THAT TREE.
C: Henry Russell
Q: "Andante."
%R: air, march
B: W. Hamilton "Universal Tune-Book" Vol. 2 Glasgow 1846 p.68 #3
S: http://s3-eu-west-1.amazonaws.com/itma.dl.printmaterial/book_pdfs/hamiltonvol2web.pdf
Z: 2016 John Chambers <jc:trillian.mit.edu>
M: C
L: 1/8
K: G
% - - - - - - - - - - - - - - - - - - - - - - - - -
[|\
B3B B3A | (G4 D2)z2 | A2AA (BG)(dB) | A6 zA |\
B3B B3A | (G4 AG)(FE) | D3B B3A | G4 z2A2 |
A3A (BA)(GE) | (D4 d2)zd | ^c3A G3E | D4 z2D2 |\
B3B (B2cd) | (e4 dc)(BA) | G3D (B2(3B)AF | G4 z4 |]
% - - - - - - - - - - - - - - - - - - - - - - - - -
